packages/icons/src/assets/subnet.svg

<svg xmlns="http://www.w3.org/2000/svg" width="24" height="24"><g clip-path="url(#a)"><path d="M19.5 2.25h-9A2.257 2.257 0 0 0 8.25 4.5v2.25H7.5A2.257 2.257 0 0 0 5.25 9v4.5a2.257 2.257 0 0 0 2.25 2.25h3.75v1.635a2.26 2.26 0 0 0-1.365 1.365H3v1.5h6.885c.308.87 1.133 1.5 2.115 1.5s1.8-.63 2.115-1.5H21v-1.5h-6.885a2.26 2.26 0 0 0-1.365-1.365V15.75h3.75a2.257 2.257 0 0 0 2.25-2.25v-2.25h.75A2.257 2.257 0 0 0 21.75 9V4.5a2.257 2.257 0 0 0-2.25-2.25m-7.5 18a.75.75 0 0 1-.75-.75c0-.413.338-.75.75-.75s.75.337.75.75-.338.75-.75.75m5.25-6.75c0 .412-.337.75-.75.75h-9a.75.75 0 0 1-.75-.75V9c0-.412.338-.75.75-.75h9c.413 0 .75.338.75.75zm3-4.5c0 .412-.337.75-.75.75h-.75V9a2.257 2.257 0 0 0-2.25-2.25H9.75V4.5c0-.412.338-.75.75-.75h9c.413 0 .75.338.75.75z"/></g><defs><clipPath id="a"><path d="M0 0h24v24H0z"/></clipPath></defs></svg>

<svg width="100%" height="100%" viewBox="0 0 24 24" version="1.1" xmlns="http://www.w3.org/2000/svg" xmlns:xlink="http://www.w3.org/1999/xlink" xml:space="preserve" style="fill-rule:evenodd;clip-rule:evenodd;stroke-linejoin:round;stroke-miterlimit:2;"><path d="M19.5,2.25L10.5,2.25C9.267,2.254 8.254,3.267 8.25,4.5L8.25,6.75L7.5,6.75C6.267,6.754 5.254,7.767 5.25,9L5.25,13.5C5.254,14.733 6.267,15.746 7.5,15.75L11.25,15.75L11.25,17.385C10.614,17.613 10.113,18.114 9.885,18.75L3,18.75L3,20.25L9.885,20.25C10.193,21.12 11.018,21.75 12,21.75C12.982,21.75 13.8,21.12 14.115,20.25L21,20.25L21,18.75L14.115,18.75C13.887,18.114 13.386,17.613 12.75,17.385L12.75,15.75L16.5,15.75C17.733,15.746 18.746,14.733 18.75,13.5L18.75,11.25L19.5,11.25C20.733,11.246 21.746,10.233 21.75,9L21.75,4.5C21.746,3.267 20.733,2.254 19.5,2.25M12,20.25C11.589,20.25 11.25,19.911 11.25,19.5C11.25,19.087 11.588,18.75 12,18.75C12.412,18.75 12.75,19.087 12.75,19.5C12.75,19.913 12.412,20.25 12,20.25M17.25,13.5C17.25,13.912 16.913,14.25 16.5,14.25L7.5,14.25C7.089,14.25 6.75,13.911 6.75,13.5L6.75,9C6.75,8.588 7.088,8.25 7.5,8.25L16.5,8.25C16.913,8.25 17.25,8.588 17.25,9L17.25,13.5ZM20.25,9C20.25,9.412 19.913,9.75 19.5,9.75L18.75,9.75L18.75,9C18.746,7.767 17.733,6.754 16.5,6.75L9.75,6.75L9.75,4.5C9.75,4.088 10.088,3.75 10.5,3.75L19.5,3.75C19.913,3.75 20.25,4.088 20.25,4.5L20.25,9Z" style="fill-rule:nonzero;"/></svg>
